svgs/sharp-light/square-chevron-up.svg

<svg xmlns="http://www.w3.org/2000/svg" viewBox="0 0 448 512"><!--! Font Awesome Pro 6.6.0 by @fontawesome - https://fontawesome.com License - https://fontawesome.com/license (Commercial License) Copyright 2024 Fonticons, Inc. --><path d="M32 64l0 384 384 0 0-384L32 64zM0 32l32 0 384 0 32 0 0 32 0 384 0 32-32 0L32 480 0 480l0-32L0 64 0 32zM235.3 164.7l112 112L358.6 288 336 310.6l-11.3-11.3L224 198.6 123.3 299.3 112 310.6 89.4 288l11.3-11.3 112-112L224 153.4l11.3 11.3z"/></svg>

<svg xmlns="http://www.w3.org/2000/svg" viewBox="0 0 448 512"><!--! Font Awesome Pro 6.4.2 by @fontawesome - https://fontawesome.com License - https://fontawesome.com/license (Commercial License) Copyright 2023 Fonticons, Inc. --><path d="M32 64V448H416V64H32zM0 32H32 416h32V64 448v32H416 32 0V448 64 32zM235.3 164.7l112 112L358.6 288 336 310.6l-11.3-11.3L224 198.6 123.3 299.3 112 310.6 89.4 288l11.3-11.3 112-112L224 153.4l11.3 11.3z"/></svg>
